X:1
T:Liza Lee
M:4/4
L:1/4
K:G
 D D G3/2 G/2| AG/2-A/2 B2| D D G2|(3A3.99999962500005/11.9999985000002A3.99999962500005/11.9999985000002B3.99999962500005/11.9999985000002A3.99999962500005/11.9999985000002B3.99999962500005/11.9999985000002A3.99999962500005/11.9999985000002G/2-A/2 B3/2 B/2|\
 d e d3/2 B/2| A B G2| D D G2|(3A3.99999962500005/11.9999985000002A3.99999962500005/11.9999985000002B3.99999962500005/11.9999985000002A3.99999962500005/11.9999985000002B3.99999962500005/11.9999985000002A3.99999962500005/11.9999985000002G/2-A/2 B2|\


